Modules/BetterCms.Module.Root/Scss/base_64/icons/cp-add-new.svg

<svg xmlns="http://www.w3.org/2000/svg" preserveAspectRatio="xMidYMid" width="18" height="18" viewBox="0 0 18 18">
    <path fill="#06273f" fill-rule="evenodd" d="M18.000,11.000 L11.000,11.000 L11.000,18.000 L7.000,18.000 L7.000,11.000 L-0.000,11.000 L-0.000,7.000 L7.000,7.000 L7.000,-0.000 L11.000,-0.000 L11.000,7.000 L18.000,7.000 L18.000,11.000 Z"/>
    <path fill="#0f5b90" fill-rule="evenodd" d="M11.000,11.000 L11.000,18.000 L8.000,18.000 L8.000,12.000 L7.000,12.000 L7.000,11.000 L1.000,11.000 L1.000,8.000 L8.000,8.000 L8.000,7.000 L8.000,1.000 L11.000,1.000 L11.000,7.000 L12.000,7.000 L12.000,8.000 L18.000,8.000 L18.000,11.000 L11.000,11.000 Z"/>
</svg>

<svg xmlns="http://www.w3.org/2000/svg" width="18" height="18" viewBox="0 0 18 18">
 <g fill-rule="evenodd">
  <path fill="#06273f" d="m18 11h-7v7h-4v-7h-7v-4h7v-7h4v7h7v4"/>
  <path fill="#0f5b90" d="m11 11v7h-3v-6h-1v-1h-6v-3h7v-1-6h3v6h1v1h6v3h-7"/>
 </g>
</svg>
